X: 26
T: Piano Sonata No. 6 in D major, K 284 (205b), mvmt. 3i
C: Wolfgang Amadeus Mozart
%%abc-version 2.0
%%abcx-abcm2ps-target-version 5.9.1 (29 Sep 2008)
%%abc-creator hum2abc beta
%%abcx-conversion-date 2021/01/14 17:01:31
%%abc-copyright 2018 Craig Stuart Sapp
%%abc-edited-by Craig Stuart Sapp
%%abc-edited-by Craig Stuart Sapp
%%abcx-initial-encoding-date 2009/09/22
%%gracespace 0 6 6
%%humdrum-veritas 518026991
%%humdrum-veritas-data 4077000907
%%linebreak <none>
%%barnumbers 0
L: 1/8
M: C|
N: Derived from sonata06-3i.krn
Q: "Variation 8: Maggiore"
%%staves {1 2}
V: 1 clef=treble
V: 2 clef=bass
K: D
[V:1] [A2a2][Aa][Aa] [I:setbarnb 1]| 
[V:2] z4[K:clef=treble] | 
[V:1] [d2d'2]z2[d2d'2][dd'][dd'] | 
[V:2] z [DF][EG][FA]z4 | 
[V:1] [G2g2]z2[G2g2][Gg][Gg] | 
[V:2] z [A,C][B,D][CE]z4[K:clef=bass] | 
[V:1] [Ff][Gg][^G^g][Aa] [^A^a][Bb][cc'][dd'] | 
[V:2] [D,2D2]z2[G,,2G,2]z2 | 
[V:1] [d2f2][c2e2]z4 | 
[V:2] [A,,2A,2]z2[A,,2A,2][A,,A,][A,,A,] | 
[V:1] z [df][eg][fa]z4 | 
[V:2] [D,2D2]z2[D,2D2][D,D][D,D] | 
[V:1] z [^gb][ac'][bd'][E2e2][Ee][Ee] | 
[V:2] [E,,2E,2]z2z [^G,B,][A,C][B,D] | 
[V:1] [ee'] z [dd'] z [cc'] z [Bb] z | 
[V:2] z [A,C] z [D,B,] z [E,A,] z [E,^G,] | 
[V:1] [A2a2]z2 :|]|:  
[V:2] z A,A,,2 :|]|:  
[V:1] [A2a2][Aa][Aa] [I:setbarnb 9]| 
[V:2] z4[K:clef=treble] | 
[V:1] [=c=c'] z [Bb] z [_B_b] z [Aa] z | 
[V:2] z [^DA] z [E^G] z [C=G] z [=DF] | 
[V:1] [^c^c'][dd']z2[^A^a][Bb]z2 | 
[V:2] z2[K:clef=bass][^A,,^A,][B,,B,]z2[F,,F,][G,,G,] | 
[V:1] [G2g2][F2f2][E2e2][D2d2] | 
[V:2] [C,2C2][D,2D2][C,2C2][B,,2B,2] | 
[V:1] [F2f2]>[G2g2] [^G^g][Aa][Gg][Aa] | 
[V:2] [A,8-D8] | 
[V:1] [E2e2]z2z4 | 
[V:2] [A,2C2]z2[A,,,2A,,2][A,,,A,,][A,,,A,,] | 
[V:1] z [df][e=g][fa]z4 | 
[V:2] [D,,2D,2]z2[D,2D2][D,D][D,D] | 
[V:1] z [Be][^df][eg][c2c'2][cc'][cc'] | 
[V:2] [G,,2G,2]z2[K:clef=treble]z [GB][FA][EG] | 
[V:1] [=d=d'] z [Bb] z [Aa] z [cc'] z | 
[V:2] z [DF] z[K:clef=bass] [G,E] z [A,F] z [A,E] | 
[V:1] [d2d'2]z2 :|]  
[V:2] z DD,2 :|]  


